X:2160
T: A mi házunk felett csak egy csillag van
Q: 1/4=104
M:2/4
L:1/4
K:Bb
g/g/ d | f/>d/ B | d/c/B/A/ | G z |
b/b/ a | g/g/ d | g/<g/f/e/ | d z |
b/b/a | g/g/ d | g/>g/f/e/ | d z |
g/g/ d | f/<d/ B | d/<c/B/A/ | G z |

